data/styles/clear/style-night/symbols/cemetery-m.svg

<svg height="24" viewBox="0 0 24 24" width="24"><g fill="none" fill-rule="evenodd"><circle cx="12" cy="12" fill="#fff" opacity=".4" r="12"/><circle cx="12" cy="12" fill="#3d3d36" r="11"/><path d="m12 6c-2.79422364 0-4.09090909 1.5-4.09090909 3.75v3.75 3c-.45454546 0-.90909091.375-.90909091.75v.75h10v-.75c0-.375-.4545455-.75-.9090909-.75v-6.75c0-2.25-1.3636364-3.75-4.0909091-3.75z" fill="#fff" opacity=".6"/></g></svg>

<svg width="24" height="24" viewBox="0 0 24 24">
  <g fill="none" fill-rule="evenodd">
    <circle cx="12" cy="12" r="12" fill="#FFF" opacity=".4"/>
    <circle cx="12" cy="12" r="11" fill="#3D3C36"/>
    <path fill="#FFF" d="M12,6 C9.20577636,6 7.90909091,7.5 7.90909091,9.75 L7.90909091,13.5 L7.90909091,16.5 C7.45454545,16.5 7,16.875 7,17.25 L7,18 L17,18 L17,17.25 C17,16.875 16.5454545,16.5 16.0909091,16.5 L16.0909091,9.75 C16.0909091,7.5 14.7272727,6 12,6 L12,6 Z" opacity=".6"/>
  </g>
</svg>
